!!!SOCIAL_FUNCTION:	miscellaneous dance songs
!!!PDT:	1932
!!!OTL: No_116_Fish_Dance_Song.krn
!!!REG: Wisconsin
!!!LANG: Non-Tone
!!!LING_GROUP: Algonquin
**kern
*staff1
=1-
*clefF4
*k[f#c#g#d#a#]
*M2/4
8c#\L
8c#\J
4c#\
=2!|:
*M3/4
8B\L
8B\J
4B\
8c#\L
8B\J
=3
8G#\L
8F#\J
4F#\
8B\L
8B\J
=4
16F#\LK
8.F#\J
8F#\
8r
8G#\L
8F#\J
=5
16F#\LK
8.F#\J
8F#\
8r
8G#\L
8F#\J
=6
16F#\LK
8.F#\J
8F#\
8r
8G#\L
8F#\J
=7||
*M2/8
16F#\LK
8.F#\J
=8
8F#\
16r
16c#\
=9||
*M2/4
4c#\
4c#\
==:|!
*-
